<?xml version="1.0" encoding="UTF-8"?>
<map version="1.10" tiledversion="1.11.2" orientation="orthogonal" renderorder="right-down" width="30" height="30" tilewidth="128" tileheight="128" infinite="0" nextlayerid="2" nextobjectid="1">
 <tileset firstgid="1" source="terrain.tsx"/>
 <tileset firstgid="99" source="terrain.tsx"/>
 <layer id="1" name="Tile Layer 1" width="30" height="30">
  <data encoding="csv">
79,68,87,89,68,1,86,90,65,90,1,26,65,1,40,26,86,89,87,71,57,71,57,1,16,1,1,1,73,60,
65,82,1,65,82,34,1,1,79,24,16,26,79,38,65,26,90,88,90,57,71,57,71,57,26,57,1,1,1,74,
82,88,2,79,39,39,41,1,1,24,24,64,40,41,79,1,16,87,64,71,57,71,16,71,17,71,17,26,57,30,
87,1,1,39,39,34,16,16,41,67,1,78,41,1,63,1,63,1,78,75,71,42,26,23,17,41,26,16,71,30,
67,65,34,1,34,40,1,16,1,81,16,34,16,1,77,64,77,1,57,16,57,1,42,32,57,16,16,29,33,32,
81,79,1,40,66,42,40,1,57,35,1,32,1,1,1,78,1,2,71,87,71,60,1,42,71,29,15,32,16,34,
41,1,65,1,80,1,57,1,71,67,34,35,1,1,1,1,1,1,1,1,60,74,60,33,34,31,30,58,1,1,
1,90,79,89,65,57,71,35,67,81,30,29,1,1,1,1,57,1,1,1,74,60,74,41,2,60,1,72,1,16,
66,1,90,1,79,71,68,60,81,29,1,30,1,1,1,1,71,1,2,1,1,74,57,1,60,74,16,1,15,1,
80,86,88,65,1,60,82,74,30,68,1,1,1,1,1,1,1,1,1,1,90,1,71,1,74,60,1,60,29,1,
66,65,1,79,57,74,65,68,57,82,1,1,1,1,188,1,1,1,1,1,86,87,1,57,60,74,60,74,1,1,
80,79,66,66,71,60,79,82,71,30,1,1,1,100,105,1,1,105,1,1,1,1,90,71,74,1,74,1,86,86,
1,2,80,80,1,74,1,67,65,1,1,1,1,105,1,1,105,1,105,1,105,1,1,1,40,41,41,1,88,88,
66,1,57,66,89,65,87,81,79,1,1,1,100,1,1,1,1,1,1,1,185,1,1,1,1,42,1,1,1,1,
80,60,71,80,68,79,88,1,68,1,1,1,1,1,1,1,99,1,1,1,1,188,1,100,1,1,34,39,1,89,
57,74,68,87,82,1,68,57,82,185,1,1,1,1,1,1,100,1,1,105,105,1,1,1,1,1,33,34,1,1,
71,57,82,36,1,86,82,71,1,1,1,1,1,105,1,1,1,1,1,1,1,1,40,1,1,1,1,1,40,1,
37,71,1,29,30,24,1,1,2,1,100,1,1,1,1,1,1,1,2,1,1,1,1,1,1,2,33,1,1,1,
37,35,9,1,30,23,1,1,1,1,1,1,100,1,1,87,1,1,1,1,1,105,33,1,1,1,38,33,1,1,
1,40,1,1,17,17,26,1,1,1,1,1,90,105,1,1,1,105,1,1,88,1,1,1,1,40,1,1,58,1,
35,1,58,1,57,17,30,29,1,1,1,1,1,1,1,1,1,90,1,1,1,1,1,1,1,1,58,1,72,1,
60,1,72,17,71,57,1,1,1,1,1,1,1,1,89,1,1,1,1,1,1,1,1,1,2,1,72,1,1,59,
74,60,1,60,1,71,57,86,1,1,1,1,1,1,1,1,1,1,1,1,57,1,1,1,1,90,6,57,1,73,
60,74,58,74,60,57,71,1,1,1,2,1,1,185,1,1,1,1,90,59,71,58,59,88,1,57,59,71,64,1,
74,59,72,60,74,71,60,89,1,30,1,87,1,1,16,1,1,1,1,73,1,72,73,1,185,71,73,59,78,59,
60,73,59,74,58,60,74,1,29,1,1,1,88,1,1,16,2,1,16,16,1,1,1,31,1,1,59,73,59,73,
74,59,73,57,72,74,2,1,1,1,30,29,1,1,1,1,1,1,90,1,1,37,32,1,59,9,73,1,73,67,
60,73,31,71,58,30,33,60,1,1,1,1,1,1,1,1,1,1,1,1,31,31,1,9,73,59,1,65,68,81,
74,60,17,16,72,60,30,74,1,1,1,1,1,1,1,16,1,1,1,1,1,1,9,36,65,73,66,79,82,67,
10,74,57,17,74,74,33,1,30,1,1,1,1,16,1,16,1,1,1,1,1,1,1,1,79,1,80,64,65,81
</data>
 </layer>
</map>
